**kern	**kern
*staff1	*staff1
*clefF4	*I"Piano
*k[f#c#g#d#]	*clefG2
*M3/4	*k[f#c#g#d#]
*	*tb16
=1-	=1-
*^	*
8.F#/	(8.FF#\	2.r
8.A/	8.AA\	.
8.E/	8.EE\	.
8.E#/	8.EE#\	.
*v	*v	*
=2	=2
4Dn\)	4dn/
4r	4r
4r	4r
=3	=3
*^	*
8.E#/	8.EE#\	2.r
8.G#/	8.GG#\	.
8.D#/	8.DD#\	.
8.En/	8.EEn\	.
*v	*v	*
=4	=4
4D-\	4d-/
4r	4r
8r	8r
(8Cn/	8cn/
=5	=5
*^	*
2.Cn/	8.r	(2.cn/
.	8.GGn\	.
.	8.CC##\	.
.	8.DD#\	.
*v	*v	*
=6	=6
4BB/)	4B/)
4r	4r
8r	8r
8D#\ 8F#\ 8B\ 8d#\ 8f#\	8ff#\ 8fff#\
=7	=7
[2.D#\ [2.F#\ [2.B\ [2.d#\ [2.f#\	[2.ff#\ [2.fff#\
=8	=8
2.D#\] 2.F#\] 2.B\] 2.d#\] 2.f#\]	2.ff#\] 2.fff#\]
=9	=9
!!linebreak:original
*^	*
(8.D#/	(8.DD#\	2.r
8.F#/	8.FF#\	.
8.C##/	8.CC##\	.
8.D#/	8.DD#\	.
=10	=10	=10
4B/)	4BB\)	2.r
*v	*v	*
4r	.
4r	.
=11	=11
*^	*
(8.Dn/	(8.DDn\	2.r
8.F#/	8.FF#\	.
8.C#/	8.CC#\	.
8.D/	8.DD\	.
=12	=12	=12
4B/)	4BB\)	2.r
4r	4r	.
8r	8r	.
(8B-/	(8BB-\	.
=13	=13	=13
8.r	2.BB-\	2.r
8.E-/	.	.
8.BBn/	.	.
8.Cn/	.	.
=14	=14	=14
4A/)	4AA\)	4r
*v	*v	*
4r	4r
8r	8r
8E-\ 8F#\ 8A\ 8e-\ 8f#\	8f#\ 8ff#\
=15	=15
[2.E-\ [2.F#\ [2.A\ [2.e-\ [2.f#\	[2.f#\ [2.ff#\
=16	=16
2.E-\] 2.F#\] 2.A\] 2.e-\] 2.f#\]	2.f#\] 2.ff#\]
=17	=17
!!linebreak:original
*^	*
(4BBB#\	4BB#/	2.r
4FFF#\	4FF#/	.
4AAA\	4AA/	.
=18	=18	=18
4A/	4AA\)	4r
*v	*v	*
4r	4r
8r	8r
8F#\ 8A\ 8dn\ 8f#\	8f#\ 8ff#\
=19	=19
[2.F#\ [2.A\ [2.dn\ [2.f#\	[2.f#\ [2.ff#\
=20	=20
2.F#\] 2.A\] 2.d\] 2.f#\]	2.f#\] 2.ff#\]
=21	=21
[2.AAA/ [2.AA/	2.r
=22	=22
2.AAA/] 2.AA/]	2.r
=23	=23
4FFF#/ 4FF#/	2.r
4GGGn/ 4GGn/	.
4AAA/ 4AA/	.
=24	=24
2.BBBB#^/ 2.BBB#^/	2.r
=25	=25
4CCC#/ 4CC#/	2.cc#^\ 2.ccc#^\
4r	.
4r	.
=26	=26
2.AA^\ 2.A^\	2.a^\ 2.aa^\
=27	=27
4GG#\ 4G#\	4g#\ 4gg#\
4FF#\ 4F#\	4f#\ 4ff#\
4EE\ 4E\	4e\ 4ee\
=28	=28
!!pagebreak:original
4AA\ 4A\	4a\ 4aa\
4GG#\ 4G#\	4g#\ 4gg#\
4FF##\ 4F##\	4f##\ 4ff##\
=29	=29
4GG#\ 4G#\	4g#\ 4gg#\
4FF#\ 4F#\	4f#\ 4ff#\
4EE\ 4E\	4e\ 4ee\
=30	=30
4AA\ 4A\	4a\ 4aa\
4GG#\ 4G#\	4g#\ 4gg#\
4FF##\ 4F##\	4f##\ 4ff##\
=31	=31
4GG#\ 4G#\	4g#\ 4gg#\
8r	8r
8EE\ 8E\	8e\ 8ee\
4DD#\ 4D#\	4d#\ 4dd#\
=32	=32
4CC#\ 4C#\	4c#\ 4cc#\
4BBB\ 4BB\	4B\ 4b\
4AAA\ 4AA\	4A\ 4a\
=33	=33
[2.GGG#\ [2.GG#\	[2.G#\ [2.g#\
=34	=34
2.GGG#\_ 2.GG#\_	2.G#\_ 2.g#\_
=35	=35
2.GGG#\] 2.GG#\_	2.G#\_ 2.g#\]
=36	=36
*	*^
2.CC#/ 2.GG#/]	2G#\]	(2.c#/ 2.e/
.	4A#/	.
=37	=37	=37
*^	*	*
2.ryy	2.GGG#\ [2.GG#\	4B#\	2.d#/
.	.	4A#\	.
.	.	4G#\	.
*v	*v	*	*
*	*v	*v
=38	=38
!!linebreak:original
*	*^
[2.GG#/ 2.F##/	4c#\	2.e/
.	4B#\	.
.	4A#\	.
*	*v	*v
=39	=39
4GG#/] 4G#/	4B#/) 4d#/
4GG#\ 4G#\	4g#\ 4gg#\
4AA\ 4A\	4a\ 4aa\
=40	=40
4EE#\ 4E#\	4e#\ 4ee#\
4FF#\ 4F#\	4f#\ 4ff#\
4En\ 4en\	4een\ 4eeen\
=41	=41
[2.C#\ 2.c#\	[2.cc#\ 2.ccc#\
=42	=42
2.AA\ 2.C#\_ 2.A\	2.a\ 2.cc#\_ 2.aa\
=43	=43
*^	*^
2.C#\]	4GG#/ 4G#/	2.cc#\]	4g#/ 4gg#/
.	4FF#/ 4F#/	.	4f#/ 4ff#/
.	4EE/ 4E/	.	4e/ 4ee/
*v	*v	*	*
*	*v	*v
=44	=44
4AA\ 4A\	4a\ 4aa\
4GG#\ 4G#\	4g#\ 4gg#\
4FF##\ 4F##\	4f##\ 4ff##\
=45	=45
4GG#\ 4G#\	4g#\ 4gg#\
4FF#\ 4F#\	4f#\ 4ff#\
4EE\ 4E\	4e\ 4ee\
=46	=46
4AA\ 4A\	4a\ 4aa\
4GG#\ 4G#\	4g#\ 4gg#\
4FF##\ 4F##\	4f##\ 4ff##\
=47	=47
!!linebreak:original
4GG#\ 4G#\	4g#\ 4gg#\
8r	8r
8EE\ 8E\	8e\ 8ee\
4DD#\ 4D#\	4d#\ 4dd#\
=48	=48
4CC#\ 4C#\	4c#\ 4cc#\
4BBB\ 4BB\	4B\ 4b\
4AAA\ 4AA\	4A\ 4a\
=49	=49
[2.GGG#\ [2.GG#\	[2.G#^\ [2.g#^\
=50	=50
2.GGG#\] 2.GG#\]	2.G#\_ 2.g#\_
=51	=51
2.EEE/ 2.EE/	(2.G#\] 2.B\ 2.g#\]
=52	=52
2.AAA/ 2.AA/	(2.A/) 2.c#/ 2.e/
=53	=53
*	*^
2.EE\ 2.BB\ 2.E\	2.G#/ 2.B/	4g#/
.	.	4f#/
.	.	4e/
=54	=54	=54
2.AA\ 2.E\	4c#\	2.e/
.	4B/	.
.	[4A/	.
=55	=55	=55
2.BB\ 2.D#\	2.f#/	2.A^/
*	*v	*v
=56	=56
4EE\ 4E\	4G#/) 4e/
4r	4r
4r	4r
=57	=57
4F#'\	2.r
4G#'\	.
4E'\	.
=58	=58
!!pagebreak:original
4D#'\	2.r
4E'\	.
4C#'\	.
=59	=59
4BB#'\	(2.G#/ 2.d#/ 2.g#/
4AA#'\	.
4GG#'\	.
=60	=60
*	*^
4E'\	2A#\	2.f##/
4D#'\	.	.
4C#'\	4e\	.
*	*v	*v
=61	=61
4BB#'\	2.G#/ 2.d#/ 2.g#/
4AA#'\	.
4GG#'\	.
=62	=62
*	*^
4E'\	4A#\	2.f##/
4D#'\	4f##\	.
4C#'\	4e\	.
*	*v	*v
=63	=63
4BB#'\	[2.G#/ 2.d#/ 2.g#/
4AA#'\	.
4GG#'\	.
=64	=64
4C#'\	4G#/]) 4c#/ 4e/
4D#'\	4r
4E'\	4c#/
=65	=65
4F#'\	2.A/ 2.B#/ 2.a/
4G#'\	.
4F#'\	.
=66	=66
4E'\	[2.G#/ 2.c#/ [2.g#/
4D#'\	.
4C#'\	.
=67	=67
!!linebreak:original
4BB#'\	2.G#/] 2.d#/ 2.g#/]
4AA#'\	.
4GG#'\	.
=68	=68
*	*^
4EE\ 4E\	2A#\	2.f##/
4DD#\ 4D#\	.	.
4CC#\ 4C#\	4e\	.
*	*v	*v
=69	=69
4BBB#\ 4BB#\	2.G#/ 2.d#/ 2.g#/
4AAA#\ 4AA#\	.
4GGG#\ 4GG#\	.
=70	=70
*	*^
4EE\ 4E\	4A#\	2.f##/
4DD#\ 4D#\	8r	.
.	8f#\	.
4CC#\ 4C#\	4e\	.
*	*v	*v
=71	=71
4BBB#\ 4BB#\	[2.G#/ 2.d#/ 2.g#/
4AAA#\ 4AA#\	.
4GGG#\ 4GG#\	.
=72	=72
4CC#\ 4C#\	4G#/] 4c#/ 4e/
4DD#\ 4D#\	8r
.	8c#/
4EE\ 4E\	4c#^/
=73	=73
4FF#\ 4F#\	2.A/ 2.B#/ 2.a/
4GG#\ 4G#\	.
4FF#\ 4F#\	.
=74	=74
4EE\ 4E\	4G#/ 4c#/ 4g#/
4DD#\ 4D#\	4r
4CC#\ [4C#\	(4c#^/ [4cc#^/
=75	=75
!!linebreak:original
*	*^
2.C#\] 2.G#\	2.b^/ 2.cc#^/]	4e#\
.	.	4d#\
.	.	4c#\
=76	=76	=76
2.F#\ 2.A\	2.cc#^/	4a\
.	.	4g#\
.	.	4f#\
=77	=77	=77
*^	*	*
4G#/	2.C#\	2.b^/ 2.cc#^/	4e#\
4A/	.	.	4d#\
4B/	.	.	4c#\
=78	=78	=78	=78
4A/	2.F#\	2.cc#^/	4a\
4B/	.	.	4g#\
4A/	.	.	4f#\
=79	=79	=79	=79
4G#/	2.C#\	2.b^/ 2.cc#^/	4e#\
4A/	.	.	4d#\
4B/	.	.	4c#\
=80	=80	=80	=80
4A/	[2.F#\	2cc#^/	4f#\
4r	.	.	4g#\
4c#/	.	4ff#/	4a\
*v	*v	*	*
=81	=81	=81
[2.F#\ 2.dn\	2.ee#/	4b\
.	.	4cc#\
.	.	4b\
=82	=82	=82
4F#\] 4c#\	2.ff#/)	4a\
4GG#\ 4G#\	.	4g#\
4AA\ 4A\	.	4f#\
*	*v	*v
=83	=83
!!pagebreak:original
*	*^
4GG#/ 4G#/	(2.ff#/ 2.gg#/	4b#\
4r	.	4a#\
4r	.	4g#\
=84	=84	=84
*^	*	*
4c#/	2.G#\	2.gg#/	4ee\
4d#/	.	.	4dd#\
4e/	.	.	4cc#\
=85	=85	=85	=85
4d#/	2.G#\	2.ff#^/ 2.gg#^/	4b#\
4e/	.	.	4a#\
4f#/	.	.	4g#\
*v	*v	*	*
=86	=86	=86
4c#\	2.gg#/	4ee\
4D#\ 4d#\	.	4dd#\
4E\ 4e\	.	4cc#\
=87	=87	=87
4GG#/ 4G#/	2.ff#^/ 2.gg#^/	4b#\
4r	.	4a#\
4f#\	.	4g#\
=88	=88	=88
*^	*	*
2.c#\	4e/	2gg#/	4cc#\
.	4r	.	4dd#\
.	4g#/	4ccc#/	4ee\
*v	*v	*	*
=89	=89	=89
[2.c#\ 2.a\	2.bb#^/	4ff#\
.	.	4gg#\
.	.	4ff#\
*	*v	*v
=90	=90
!!linebreak:original
*	*^
4c#\] 4g#\	4ccc#/)	4ee\
4r	4r	4dd#\
4r	4r	4cc#\
=91	=91	=91
4CC#/ 4C#/	4gg#^\	(2.ccc#/ 2.eee/
4EE/ 4E/	4ff#\	.
4FF#/ 4F#/	4ee\	.
=92	=92	=92
2GG#/ 2G#/	4gg#^\	2.bb/ 2.ddd#/
.	4ee\	.
4r	4dd#\	.
=93	=93	=93
4BBB/ 4BB/	4ff#^\	2.bb/ 2.ddd#/
4DD#/ 4D#/	4ee\	.
4EE/ 4E/	4dd#\	.
=94	=94	=94
2FF#/ 2F#/	4ff#^\	2.aa#/ 2.ccc#/
.	4dd#\	.
4r	4cc#\	.
=95	=95	=95
4AAA/ 4AA/	4ee^\	2.aan/ 2.ccc#/
4CC#/ 4C#/	4ddn\	.
4DDn/ 4Dn/	4cc#\	.
=96	=96	=96
2EE/ 2E/	4ee^\	2.gg#/ 2.bb/
.	4cc#\	.
4r	4b\	.
=97	=97	=97
(2C#\ 2c#\	2ee/ 2ggn/ 2aa#/	4r
.	.	4a#\
4C##\ 4c##\	4ryy	4g#\ 4b\ 4ee#\ 4gg#\
*	*v	*v
=98	=98
!!linebreak:original
4D#\) 4d#\	4f##\) 4a#\ 4dd#\ 4ff##\
4r	4r
4r	4r
=99	=99
4BBB#/ 4BB#/	(2.gg#^\ 2.ddd#^\ 2.ggg#^\
4CC#/ 4C#/	.
4DD#/ 4D#/	.
=100	=100
4EE/ 4E/	2.ee^\ 2.gg#^\ 2.ccc#^\ 2.eee^\
4FF#/ 4F#/	.
4GG#/ 4G#/	.
=101	=101
4AA\ 4A\	2.cc#^\ 2.ee^\ 2.aa^\ 2.ccc#^\
4BB\ 4B\	.
4C#\ 4c#\	.
=102	=102
4D#\ 4d#\	2.a^\ 2.cc#^\ 2.ff#^\ 2.aa^\
4E\ 4e\	.
4F#\ 4f#\	.
=103	=103
4G#\ 4g#\	4b#\) 4dd#\ 4gg#\
2r	4r
.	4r
=104	=104
4DDD#/ 4DD#/	(2.A^\ 2.c#^\ 2.f#^\ 2.a^\
4EEE/ 4EE/	.
4FFF#/ 4FF#/	.
=105	=105
4GGG#/ 4GG#/	4G#\) 4B#\ 4d#\ 4g#\
4r	4r
4r	4r
=106	=106
2.GG#^\ 2.G#^\	2.g#^\ 2.gg#^\
=107	=107
2.C#^\ 2.c#^\	2.cc#^\ 2.ccc#^\
=108	=108
!!pagebreak:original
2.AA^\ 2.A^\	2.a^\ 2.aa^\
=109	=109
4GG#\ 4G#\	4g#\ 4gg#\
4FF#\ 4F#\	4f#\ 4ff#\
4EE\ 4E\	4e\ 4ee\
=110	=110
4AA\ 4A\	4a\ 4aa\
4GG#\ 4G#\	4g#\ 4gg#\
4FF##\ 4F##\	4f##\ 4ff##\
=111	=111
4GG#\ 4G#\	4g#\ 4gg#\
4FF#\ 4F#\	4f#\ 4ff#\
4EE\ 4E\	4e\ 4ee\
=112	=112
4AA\ 4A\	4a\ 4aa\
4GG#\ 4G#\	4g#\ 4gg#\
4FF##\ 4F##\	4f##\ 4ff##\
=113	=113
4GG#\ 4G#\	4g#\ 4gg#\
8r	8r
8EE\ 8E\	8e\ 8ee\
4DD#\ 4D#\	4d#\ 4dd#\
=114	=114
4CC#\ 4C#\	4c#\ 4cc#\
4BBB\ 4BB\	4B\ 4b\
4AAA\ 4AA\	4A\ 4a\
=115	=115
[2.GGG#\ [2.GG#\	[2.G#\ [2.g#\
=116	=116
2.GGG#\_ 2.GG#\_	2.G#\_ 2.g#\_
=117	=117
2.GGG#\] 2.GG#\_	2.G#\_ 2.g#\]
=118	=118
*	*^
2.CC#/ 2.GG#/]	2G#\]	2.c#/ 2.e/
.	4A#/	.
*	*v	*v
=119	=119
!!linebreak:original
*^	*^
2.ryy	2.GGG#\ [2.GG#\	4B#\	2.d#/
.	.	4A#\	.
.	.	4G#\	.
*v	*v	*	*
=120	=120	=120
[2.GG#/ 2.F##/	4c#\	2.e/
.	4B#\	.
.	4A#\	.
*	*v	*v
=121	=121
4GG#/] 4G#/	4B#/ 4d#/
4GG#\ 4G#\	4g#\ 4gg#\
4AA\ 4A\	4a\ 4aa\
=122	=122
4EE#\ 4E#\	4e#\ 4ee#\
4FF#\ 4F#\	4f#\ 4ff#\
4En\ 4en\	4een\ 4eeen\
=123	=123
[2.C#\ 2.c#\	[2.cc#\ 2.ccc#\
=124	=124
2.AA\ 2.C#\_ 2.A\	2.a\ 2.cc#\_ 2.aa\
=125	=125
*^	*^
2.C#\]	4GG#/ 4G#/	2.cc#\]	4g#/ 4gg#/
.	4FF#/ 4F#/	.	4f#/ 4ff#/
.	4EE/ 4E/	.	4e/ 4ee/
*v	*v	*	*
*	*v	*v
=126	=126
4AA\ 4A\	4a\ 4aa\
4GG#\ 4G#\	4g#\ 4gg#\
4FF##\ 4F##\	4f##\ 4ff##\
=127	=127
4GG#\ 4G#\	4g#\ 4gg#\
4FF#\ 4F#\	4f#\ 4ff#\
4EE\ 4E\	4e\ 4ee\
=128	=128
!!linebreak:original
4AA\ 4A\	4a\ 4aa\
4GG#\ 4G#\	4g#\ 4gg#\
4FF##\ 4F##\	4f##\ 4ff##\
=129	=129
4GG#\ 4G#\	4g#\ 4gg#\
8r	8r
8EE\ 8E\	8e\ 8ee\
4DD#\ 4D#\	4d#\ 4dd#\
=130	=130
4CC#\ 4C#\	4c#\ 4cc#\
4BBB\ 4BB\	4B\ 4b\
4GGG#\ 4GG#\	4G#\ 4g#\
=131	=131
[2.FFF#\ [2.FF#\	[2.F#^/ [2.f#^/
=132	=132
*	*^
2.FFF#\] 2.FF#\_	2.F#/] 2.f#/_	2.A#\ 2.e\
=133	=133	=133
2.BBB\ 2.FF#\_	2.d#/ 2.f#/_	4B\
.	.	4A#\
.	.	4G#\
=134	=134	=134
2.FFF#\ 2.FF#\_	2.e/ 2.f#/_	4A#\
.	.	4G#\
.	.	4F#\
=135	=135	=135
*^	*	*
2.FF#\]	2.BBB\	2.d#/ 2.f#/]	2.F#/ 2.B/
*v	*v	*	*
*	*v	*v
=136	=136
2.GGG#/ 2.GG#/	2.G#/ 2.g#/
=137	=137
2.FFF#/ 2.FF#/	2.F#/ 2.f#/
=138	=138
!!pagebreak:original
2.GGG#/ 2.GG#/	2.G#/ 2.g#/
=139	=139
[2.FFF#/ [2.FF#/	[2.F#/ [2.f#/
=140	=140
*	*^
2.FFF#/] 2.FF#/_	2.F#/] 2.f#/_	2.A#\ 2.e\
=141	=141	=141
2.BBB\ 2.FF#\_	2.d#/ 2.f#/_	4B\
.	.	4A#\
.	.	4G#\
=142	=142	=142
2.FFF#\ 2.FF#\_	2.e/ 2.f#/]	4A#\
.	.	4G#\
.	.	4F#\
=143	=143	=143
*^	*	*
4FF#/]	4BBB/	4d#/	4B/
*v	*v	*	*
*	*v	*v
4DD#/ 4D#/	4d#/ 4dd#/
4CC#/ 4C#/	4c#/ 4cc#/
=144	=144
4BBB/ 4BB/	4B/ 4b/
4BBB-/ 4BB-/	4B-/ 4b-/
4GGG-/ 4GG-/	4G-/ 4g-/
=145	=145
4FFFn/ 4FFn/	4Fn/ 4fn/
4DD-/ 4D-/	4d-/ 4dd-/
4CCn/ 4Cn/	4cn/ 4ccn/
=146	=146
4BBB-/ 4BB-/	4B-/ 4b-/
4AAA-/ 4AA-/	4A-/ 4a-/
4FFF-/ 4FF-/	4F-/ 4f-/
=147	=147
!!linebreak:original
[2.EEE-/ [2.EE-/	2.E-/ [2.e-/
=148	=148
2.EEE-/] 2.EE-/_	2.Gn/ 2.d-/ 2.e-/_
=149	=149
*	*^
2.AAA-/ 2.EE-/_	2.cn/ 2.e-/_	4A-\
.	.	4Gn\
.	.	4Fn\
=150	=150	=150
2.EEE-/ 2.EE-/]	2.d-/ 2.e-/]	4Gn\
.	.	4Fn\
.	.	[4E-\
*	*v	*v
=151	=151
4AAA-/	4E-/ 4A-/ 4cn/ 4e-/
4r	4r
4r	4r
=152	=152
2.A-^\	2.r
=153	=153
2.A-^\	2.r
=154	=154
*^	*
[2.A-^/	4Fn\	2.r
.	4E-\	.
.	4D-\	.
*v	*v	*
=155	=155
*k[b-e-a-d-g-]	*k[b-e-a-d-g-]
*^	*
2.A-/_	[2.AA-\	2.r
*v	*v	*
=156	=156
!!linebreak:original
2.DD-\ 2.AA-\ [2.D-\ 2.F\ 2.A-\]	2.r
=157	=157
*^	*
2.BBB-/ 2.D-/]	2.BB-/	2.F/ 2.d-/
*v	*v	*
=158	=158
2.AAA-/ 2.AA-/	2.E-/ 2.A-/ 2.c/ 2.e-/
=159	=159
4DDD-/ 4DD-/	4F/ 4A-/ 4d-/ 4f/
(8ddd-\L	(8bbb-\L
8ff\	8ddd-\
8aa-\	8aaa-\
8dd-\J	8bb-\J
=160	=160
8aa-\L	8ggg-\L
8dd-\	8ddd-\
8ff\	8fff\
8a-\	8aa-\
8ff\	8eee-\
8a-\J	8aa-\J
=161	=161
8dd-\L	8ddd-\L
8f\	8ff\
8dd-\	8bb-\
8f\	8dd-\
8a-\	8aa-\
8d-\J	8b-\J
=162	=162
8a-\L	8gg-\L
8d-\	8dd-\
8f\	8ff\
8A-\	8a-\
8f\	8ee-\
8A-\J	8a-\J
=163	=163
4D-\)	4f/) 4dd-/
4r	4r
4r	4r
=164	=164
!!pagebreak:original
2.FF\ 2.F\	(2.An/ 2.c/ 2.f/
=165	=165
2.BB-\ 2.F\	2.B-/ 2.d-/ 2.f/
=166	=166
4.EE-/ 4.BB-/	4.G-/ 4.d-/ 4.a-/
8EE-/ 8BB-/	8G-/ 8d-/ 8g-/
4EE-/ 4E-/	4G-/ 4d-/ 4f/
=167	=167
4AA-/ 4E-/	4c/) 4e-/
(8aaa-\L	(8ffff\L
8ccc\	8cccc\
8eee-\	8eeee-\
8aa-\J	8aaa-\J
=168	=168
8eee-\L	8dddd-\L
8aa-\	8aaa-\
8ccc\	8cccc\
8ee-\	8eee-\
8ccc\	8bbb-\
8ee-\J	8eee-\J
=169	=169
8aa-\L	8aaa-\L
8cc\	8ccc\
8aa-\	8fff\
8cc\	8aa-\
8ee-\	8eee-\
8a-\J	8ff\J
=170	=170
8ee-\L	8ddd-\L
8a-\	8aa-\
8cc\	8ccc\
8e-\	8ee-\
8cc\	8bb-\
8e-\J	8ee-\J
=171	=171
!!linebreak:original
4A-\)	4cc/) 4aa-/
4r	4r
4r	4r
=172	=172
2.AA-\ 2.A-\	2.E-/ 2.A-/ 2.c/ 2.e-/
=173	=173
2.AA-\ 2.A-\	2.E-/ 2.c-/ 2.e-/
=174	=174
2.DD-\ 2.AA-\ 2.D-\	2.F/ 2.c-/ 2.d-/
=175	=175
4GGG-\ 4GG-\	4B-/ 4d-/ 4g-/ 4b-/
8ggg-\L	8eeee-\L
8bb-\	8bbb-\
8ddd-\	8dddd-\
8gg-\J	8ggg-\J
=176	=176
8ddd-\L	8cccc-\L
8gg-\	8ggg-\
8bb-\	8bbb-\
8dd-\	8ddd-\
8bb-\	8aaa-\
8dd-\J	8ddd-\J
=177	=177
8gg-\L	8ggg-\L
8b-\	8bb-\
8gg-\	8eee-\
8b-\	8bb-\
8dd-\	8ddd-\
8g-\J	8gg-\J
=178	=178
8dd-\L	8ccc-\L
8g-\	8gg-\
8b-\	8bb-\
8d-\	8dd-\
8b-\	8aa-\
8d-\J	8dd-\J
=179	=179
!!linebreak:original
4G-\	4b-\ 4gg-\
4r	4r
4r	4r
=180	=180
2.GGG-/ 2.GG-/	2.B-/ 2.d-/ 2.b-/
=181	=181
2.BBB-\ 2.BB-\	2.G-/ 2.d-/ 2.e-/
=182	=182
*^	*
4.AA-/	2.AAA-\	4.B-/ 4.d-/ 4.g-/
8AA-/	.	8A-/ 8c/ 8f/
[4AA-/	.	4G-/ 4c/ 4e-/
*v	*v	*
=183	=183
4DD-\ 4AA-\]	4F/ 4d-/
8ddd-\L	8bbb-\L
8ff\	8fff\
8aa-\	8aaa-\
8dd-\J	8ddd-\J
=184	=184
8aa-\L	8ggg-\L
8dd-\	8ddd-\
8ff\	8fff\
8a-\	8aa-\
8ff\	8eee-\
8a-\J	8aa-\J
=185	=185
8dd-\L	8ddd-\L
8f\	8ff\
8dd-\	8bb-\
8f\	8dd-\
8a-\	8aa-\
8d-\J	8b-\J
=186	=186
!!pagebreak:original
4A-\	4b-\ 4dd-\ 4gg-\
8r	8r
8A-\	8a-\ 8cc\ 8ff\
4A-\	4g-\ 4cc\ 4ee-\
=187	=187
4D-\ 4d-\	4f/ 4dd-/
8dd-\L	8bb-\L
8f\	8ff\
8a-\	8aa-\
8d-\J	8dd-\J
=188	=188
8a-\L	8gg-\L
8d-\	8dd-\
8f\	8ff\
8A-\	8a-\
8f\	8ee-\
8A-\J	8a-\J
=189	=189
8d-\L	8dd-/L
8F\	8f/
8d-\	8b-/
8F\	8d-/
8A-\	8a-/
8D-\J	8B-/J
=190	=190
4AA-/	4B-/ 4d-/ 4g-/
8r	8r
8AA-/	8A-/ 8c/ 8f/
4AA-/	4G-/ 4c/ 4e-/
=191	=191
4DD-\	4F/ 4d-/
4r	4r
4r	4r
=192	=192
*^	*
2.ryy	2.DDD-\	2.D-/
=193	=193	=193
2.ryy	2.DDD-\	2.D-/
*v	*v	*
=194	=194
!!linebreak:original
*^	*
2.ryy	2.DDD-\	2.D-/
=195	=195	=195
2.ryy	[2.DDD-\	[2.D-/
=196	=196	=196
2.ryy	2.DDD-\]	2.D-/]
=197	=197	=197
2.ryy	2.BBBB-\	2.BB-/
=198	=198	=198
2.ryy	2.EEE-\	2.E-/
=199	=199	=199
2.ryy	4DDD-\	4D-/
.	4r	4r
.	4r	4r
*v	*v	*
=200	=200
2.D-\ 2.A-\	2.d-\ 2.f\ 2.a-\
=201	=201
*^	*
2.BB-\ 2.B-\	2.F\	2.d-/ 2.f/ 2.b-/ 2.dd-/
*v	*v	*
=202	=202
[2.AA-\ 2.A-\	2.e-/ [2.a-/ 2.cc/ 2.ee-/
=203	=203
4DD-/ 4AA-/] 4D-/	4f\ 4a-\] 4dd-\ 4ff\
(8ddd-\L	(8bbb-\L
8ff\	8ddd-\
8aa-\	8aaa-\
8dd-\J	8bb-\J
=204	=204
8aa-\L	8ggg-\L
8dd-\	8ddd-\
8ff\	8fff\
8a-\	8aa-\
8ff\	8eee-\
8a-\J	8aa-\J
=205	=205
!!linebreak:original
8dd-\L	8ddd-\L
8f\	8ff\
8dd-\	8bb-\
8f\	8dd-\
8a-\	8aa-\
8d-\J	8b-\J
=206	=206
8a-\L	8gg-\L
8d-\	8dd-\
8f\	8ff\
8A-\	8a-\
8f\	8ee-\
8A-\J	8a-\J
=207	=207
4D-\)	4f/) 4dd-/
4r	4r
4r	4r
=208	=208
2.FF\ 2.F\	(2.f\ 2.an\ 2.cc\ 2.ff\
=209	=209
2.BB-\ 2.F\ 2.d-\	2.f\ 2.b-\ 2.dd-\ 2.ff\
=210	=210
4.EE-/ 4.E-/	4.a-/ 4.b-/ 4.dd-/ 4.aa-/
8E-\ 8B-\ 8e-\	8g-/ 8b-/ 8dd-/ 8gg-/
4E-\ 4B-\ 4e-\	4g-/ 4b-/ 4dd-/ 4ff/
=211	=211
4A-\ 4e-\	4cc\) 4ee-\
(8aaa-\L	(8ffff\L
8ccc\	8cccc\
8eee-\	8eeee-\
8aa-\J	8aaa-\J
=212	=212
!!pagebreak:original
8eee-\L	8dddd-\L
8aa-\	8aaa-\
8ccc\	8cccc\
8ee-\	8eee-\
8ccc\	8bbb-\
8ee-\J	8eee-\J
=213	=213
8aa-\L	8aaa-\L
8cc\	8ccc\
8aa-\	8fff\
8cc\	8aa-\
8ee-\	8eee-\
8a-\J	8ff\J
=214	=214
8ee-\L	8ddd-\L
8a-\	8aa-\
8cc\	8ccc\
8e-\	8ee-\
8cc\	8bb-\
8e-\J	8ee-\J
=215	=215
4A-\)	4cc/) 4aa-/
4r	4r
4r	4r
=216	=216
2.AA-\ 2.E-\ 2.A-\	2.e-/ 2.a-/ 2.cc-/ 2.ee-/
=217	=217
2.C-\ 2.E-\ 2.A-\ 2.c-\	2.e-/ 2.g-/ 2.a-/ 2.ee-/
=218	=218
2.D-\ 2.A-\ 2.c-\	2.d-/ 2.f/ 2.cc-/ 2.dd-/
=219	=219
!!linebreak:original
4GG-\ 4D-\ 4B-\	4b-\ 4dd-\ 4gg-\ 4bb-\
8ggg-\L	8eeee-\L
8bb-\	8bbb-\
8ddd-\	8dddd-\
8gg-\J	8ggg-\J
=220	=220
8ddd-\L	8cccc-\L
8gg-\	8ggg-\
8bb-\	8bbb-\
8dd-\	8ddd-\
8bb-\	8aaa-\
8dd-\J	8ddd-\J
=221	=221
8gg-\L	8ggg-\L
8b-\	8bb-\
8gg-\	8eee-\
8b-\	8bb-\
8dd-\	8ddd-\
8g-\J	8gg-\J
=222	=222
8dd-\L	8ccc-\L
8g-\	8gg-\
8b-\	8bb-\
8d-\	8dd-\
8b-\	8aa-\
8d-\J	8dd-\J
=223	=223
4G-\	4b-\ 4gg-\
4r	4r
4r	4r
=224	=224
2.GGG-/ 2.GG-/	2.b-\ 2.dd-\ 2.ee-\ 2.bb-\
=225	=225
2.GG-\ 2.G-\	2.e-/ 2.b-/ 2.dd-/ 2.ee-/
=226	=226
!!linebreak:original
4.AA-\ 4.A-\	4.e-/ 4.b-/ 4.dd-/ 4.gg-/
8A-\ 8e-\	8a-/ 8cc/ 8ff/
4A-\ 4e-\	4g-/ 4cc/ 4ee-/
=227	=227
4D-\ 4A-\ 4d-\	4f/ 4dd-/
8ddd-\L	8bbb-\L
8ff\	8fff\
8aa-\	8aaa-\
8dd-\J	8ddd-\J
=228	=228
8aa-\L	8ggg-\L
8dd-\	8ddd-\
8ff\	8fff\
8a-\	8aa-\
8ff\	8eee-\
8a-\J	8aa-\J
=229	=229
8dd-\L	8ddd-\L
8f\	8ff\
8dd-\	8bb-\
8f\	8dd-\
8a-\	8aa-\
8d-\J	8b-\J
=230	=230
4A-\	4b-\ 4dd-\ 4gg-\
8r	8r
8A-\	8a-\ 8cc\ 8ff\
4A-\	4g-\ 4cc\ 4ee-\
=231	=231
4D-\	4f/ 4dd-/
8dd-\L	8bb-\L
8f\	8ff\
8a-\	8aa-\
8d-\J	8dd-\J
=232	=232
!!pagebreak:original
8a-\L	8gg-\L
8d-\	8dd-\
8f\	8ff\
8A-\	8a-\
8f\	8ee-\
8A-\J	8a-\J
=233	=233
8d-\L	8dd-/L
8F\	8f/
8d-\	8b-/
8F\	8d-/
8A-\	8a-/
8D-\J	8B-/J
=234	=234
4AA-/	4B-/ 4d-/ 4g-/
8r	8r
8AA-/	8A-/ 8c/ 8f/
4AA-/	4G-/ 4c/ 4e-/
=235	=235
4DD-\	4F/ 4d-/
4r	4r
4r	4r
=236	=236
*^	*
2.ryy	2.DDD-\	2.D-/
=237	=237	=237
2.ryy	2.DDD-\	2.D-/
=238	=238	=238
2.ryy	2.DDD-\	2.D-/
=239	=239	=239
2.ryy	[2.DDD-\	[2.D-/
=240	=240	=240
2.ryy	2.DDD-\]	2.D-/]
=241	=241	=241
2.ryy	2.BBBB-\	2.BB-/
*v	*v	*
=242	=242
!!linebreak:original
*^	*
2.ryy	2.FFF-\ 2.FF-\	2.F-/
*v	*v	*
=243	=243
4EEE-\ 4EE-\	4E-/
4r	4r
8EE-/L	8Gn/L
8BB-/J	8d-/J
=244	=244
8D-\L	8e-\L
8Gn\	8gn\
8B-\	8dd-\
8d-\	8ee-\
8gn\	8ggn\
8b-\J	8ddd-\J
=245	=245
8dd-\L	8eee-\L
8ggn\	8bbb-\
8dd-\	8eee-\
8b-\	8ddd-\
8e-\	8ggn\
8b-\J	8ddd-\J
=246	=246
8dd-\L	8eee-\L
8aa-\	8cccc\
8dd-\	8eee-\
8b-\	8ddd-\
8e-\	8aa-\
8b-\J	8ddd-\J
=247	=247
8dd-\L	8eee-\L
8ggn\	8bbb-\
8dd-\	8eee-\
8b-\	8ddd-\
8e-\	8ggn\
8b-\J	8ddd-\J
=248	=248
!!linebreak:original
8dd-\L	8eee-\L
8ff\	8aaa-\
8dd-\	8eee-\
8b-\	8ddd-\
8e-\	8ff\
8b-\J	8ddd-\J
=249	=249
8dd-\L	8eee-\L
8ee-\	8gggn\
8dd-\	8eee-\
8b-\	8ddd-\
8e-\	8ee-\
8b-\J	8ddd-\J
=250	=250
4A-\ 4e-\ 4cc\	4ccc\ 4aaa-\
4r	4r
4r	4r
=251	=251
4EEE-/	4r
4r	4r
8EE-/L	8Gn/L
8BB-/J	8d-/J
=252	=252
8D-\L	8e-\L
8Gn\	8gn\
8B-\	8dd-\
8d-\	8ee-\
8gn\	8ggn\
8b-\J	8ddd-\J
=253	=253
8dd-\L	8eee-\L
8ggn\	8bbb-\
8dd-\	8eee-\
8b-\	8ddd-\
8e-\	8ggn\
8b-\J	8ddd-\J
=254	=254
!!pagebreak:original
8dd-\L	8eee-\L
8aa-\	8cccc\
8dd-\	8eee-\
8b-\	8ddd-\
8e-\	8aa-\
8b-\J	8ddd-\J
=255	=255
8dd-\L	8eee-\L
8ggn\	8bbb-\
8dd-\	8eee-\
8b-\	8ddd-\
8e-\	8ggn\
8b-\J	8ddd-\J
=256	=256
8dd-\L	8eee-\L
8ff\	8aaa-\
8dd-\	8eee-\
8b-\	8ddd-\
8e-\	8ff\
8b-\J	8ddd-\J
=257	=257
8dd-\L	8eee-\L
8ee-\	8gggn\
8dd-\	8eee-\
8b-\	8ddd-\
8e-\	8ee-\
8b-\J	8ddd-\J
=258	=258
4A-'\ 4e-'\ 4cc-'\	4ccc-'\ 4aaa-'\
4r	4r
4r	4r
=259	=259
4DDD-'/ 4DD-'/	4r
4r	4r
8DD-/L	8F/L
8AA-/J	8c-/J
=260	=260
!!linebreak:original
8C-\L	8d-\L
8F\	8f\
8A-\	8cc-\
8c-\	8dd-\
8f\	8ff\
8a-\J	8ccc-\J
=261	=261
8cc-\L	8ddd-\L
8ff\	8aaa-\
8cc-\	8ddd-\
8a-\	8ccc-\
8d-\	8ff\
8a-\J	8ccc-\J
=262	=262
8cc-\L	8ddd-\L
8gg-\	8bbb-\
8cc-\	8ddd-\
8a-\	8ccc-\
8d-\	8gg-\
8a-\J	8ccc-\J
=263	=263
8cc-\L	8ddd-\L
8ff\	8aaa-\
8cc-\	8ddd-\
8a-\	8ccc-\
8d-\	8ff\
8a-\J	8ccc-\J
=264	=264
8cc-\L	8ddd-\L
8ee-\	8ggg-\
8cc-\	8ddd-\
8a-\	8ccc-\
8d-\	8ee-\
8a-\J	8ccc-\J
=265	=265
!!linebreak:original
8cc-\L	8ddd-\L
8dd-\	8fff\
8cc-\	8ddd-\
8a-\	8ccc-\
8d-\	8dd-\
8a-\J	8ccc-\J
=266	=266
4G-\ 4d-\ 4b-\	4bb-\ 4ggg-\
4r	4r
4r	4r
=267	=267
4DDD-'/	4r
4r	4r
8DD-/L	8F/L
8AA-/J	8c-/J
=268	=268
8C-\L	8d-\L
8F\	8f\
8A-\	8cc-\
8c-\	8dd-\
8f\	8ff\
8a-\J	8ccc-\J
=269	=269
8cc-\L	8ddd-\L
8ff\	8aaa-\
8cc-\	8ddd-\
8a-\	8ccc-\
8d-\	8ff\
8a-\J	8ccc-\J
=270	=270
!!pagebreak:original
8cc-\L	8ddd-\L
8gg-\	8bbb-\
8cc-\	8ddd-\
8a-\	8ccc-\
8d-\	8gg-\
8a-\J	8ccc-\J
=271	=271
8cc-\L	8ddd-\L
8ff\	8aaa-\
8cc-\	8ddd-\
8a-\	8ccc-\
8d-\	8ff\
8gn\J	8bbn\J
=272	=272
8b-\L	8cccn\L
8een\	8gggn\
8b-\	8ccc\
8gn\	8bb-\
8c\	8een\
8f#\J	8aa#\J
=273	=273
8an\L	8bbn\L
8dd#\	8fff#\
8a\	8bb\
8f#\	8aan\
8Bn\	8dd#\
8fn\J	8aa\J
=274	=274
8a-\L	8bb-\L
8ddn\	8fffn\
8a-\	8bb-\
8f\	8aa-\
8B-\	8ddn\
8en\J	8gg#\J
=275	=275
!!linebreak:original
8gn\L	8aan\L
8cc#\	8eeen\
8g\	8aa\
8en\	8ggn\
8An\	8cc#\
8e-\J	8gg\J
=276	=276
8g-\L	8aa-\L
8ccn\	8eee-\
8g-\	8aa-\
8e-\	8gg-\
8A-\	8cc\
8e-\J	8gg-\J
=277	=277
8g-\L	8aa-\L
8cc\	8eee-\
8g-\	8aa-\
8e-\	8gg-\
8A-\	8cc\
8e-\J	8gg-\J
=278	=278
8g-\L	8aa-\L
8cc\	8eee-\
8g-\	8aa-\
8e-\	8gg-\
8A-\	8cc\
8e-\J	8gg-\J
=279	=279
4A-\	8cc\L
.	8gg-\
4r	8aa-\
.	8ccc\
4r	8ggg-\
.	8aaa-\J
=280	=280
!!linebreak:original
4AAA-/	8ffff\L
.	8eeee-\
2r	8dddd-\
.	8cccc\
.	8bbb-\
.	8aaan\J
=281	=281
2.E-\ 2.c\	8bbb-\L
.	8aaa-\
.	8ggg-\
.	8fff\
.	8eee-\
.	8dddn\J
=282	=282
2.c\ 2.g-\	8fff\L
.	8eee-\
.	8ddd-\
.	8ccc\
.	8bb-\
.	8aan\J
=283	=283
4g-\ 4ee-\	8bb-\L
.	8aa-\
4r	8gg-\
.	8ff\
4r	8ee-\
.	8ddn\J
=284	=284
2.r	8ff\L
.	8ee-\
.	8dd-\
.	8cc\
.	8b-\
.	8an\J
=285	=285
!!pagebreak:original
2.r	8b-/L
.	8a-/
.	8g-/
.	8f/
.	8e-/
.	8dn/J
=286	=286
2.r	8f/L
.	8e-/
.	8d-/
.	8c/
.	8B-/
.	8An/J
=287	=287
*^	*
[2.A-^/	2.r	2.r
=288	=288	=288
2.D-/ [2.F/ 2.A-/]	2.DD-\ 2.AA-\	2.r
=289	=289	=289
2.D-/ 2.F/] 2.d-/	2.BBB-\ 2.BB-\	2.r
*v	*v	*
=290	=290
2.AAA-/ 2.AA-/	2.E-/ [2.A-/ 2.c/ 2.e-/
=291	=291
4DDD-/ 4DD-/	4F/ 4A-/] 4d-/ 4f/
(8ddd-\L	(8bbb-\L
8ff\	8ddd-\
8aa-\	8aaa-\
8dd-\J	8bb-\J
=292	=292
8aa-\L	8ggg-\L
8dd-\	8ddd-\
8ff\	8fff\
8a-\	8aa-\
8ff\	8eee-\
8a-\J	8aa-\J
=293	=293
!!linebreak:original
8dd-\L	8ddd-\L
8f\	8ff\
8dd-\	8bb-\
8f\	8dd-\
8a-\	8aa-\
8d-\J	8b-\J
=294	=294
8a-\L	8gg-\L
8d-\	8dd-\
8f\	8ff\
8A-\	8a-\
8f\	8ee-\
8A-\J	8a-\J
=295	=295
4D-\)	4f/) 4dd-/
4r	4r
4r	4r
=296	=296
2.DD-\ 2.AA-\ 2.D-\	(2.F/ 2.c-/ 2.d-/ 2.f/
=297	=297
2.GG-\ 2.D-\ 2.G-\	2.B-/ 2.d-/ 2.f/
=298	=298
4.EE-/ 4.E-/	4.B-/ 4.d-/ 4.a-/
8EE-/ 8E-/	8B-/ 8d-/ 8g-/
4EE-/ 4E-/	4G-/ 4d-/ 4f/
=299	=299
4AA-/ 4E-/	4c/) 4e-/
(8aaa-\L	(8ffff\L
8ccc\	8cccc\
8eee-\	8eeee-\
8aa-\J	8aaa-\J
=300	=300
!!linebreak:original
8eee-\L	8dddd-\L
8aa-\	8aaa-\
8ccc\	8cccc\
8ee-\	8eee-\
8ccc\	8bbb-\
8ee-\J	8eee-\J
=301	=301
8aa-\L	8aaa-\L
8cc\	8ccc\
8aa-\	8fff\
8cc\	8aa-\
8ee-\	8eee-\
8a-\J	8ff\J
=302	=302
8ee-\L	8ddd-\L
8a-\	8aa-\
8cc\	8ccc\
8e-\	8ee-\
8cc\	8bb-\
8e-\J	8ee-\J
=303	=303
4A-\)	4cc/) 4aa-/
4r	4r
4r	4r
=304	=304
2.AAA-\ 2.AA-\	2.E-/ 2.c-/ 2.e-/
=305	=305
2.CC-\ 2.C-\	2.G-/ 2.A-/ 2.e-/
=306	=306
2.DD-\ 2.AA-\ 2.D-\	2.F/ 2.c-/ 2.d-/
=307	=307
!!pagebreak:original
4GGG-/ 4GG-/	4B-/ 4d-/ 4g-/ 4b-/
8ggg-\L	8eeee-\L
8bb-\	8bbb-\
8ddd-\	8dddd-\
8gg-\J	8ggg-\J
=308	=308
8ddd-\L	8cccc-\L
8gg-\	8ggg-\
8bb-\	8bbb-\
8dd-\	8ddd-\
8bb-\	8aaa-\
8dd-\J	8ddd-\J
=309	=309
8gg-\L	8ggg-\L
8b-\	8bb-\
8gg-\	8eee-\
8b-\	8bb-\
8dd-\	8ddd-\
8g-\J	8gg-\J
=310	=310
8dd-\L	8ccc-\L
8g-\	8gg-\
8b-\	8bb-\
8d-\	8dd-\
8b-\	8aa-\
8d-\J	8dd-\J
=311	=311
4G-\	4b-\ 4gg-\
4r	4r
4r	4r
=312	=312
2.GGG-/ 2.GG-/	2.B-/ 2.e-/ 2.b-/
=313	=313
2.FFF/ 2.FF/	2.B-/ 2.d-/ 2.f/ 2.b-/
=314	=314
2.FF/ 2.C/ 2.F/	2.An/ 2.c/ 2.f/ 2.an/
=315	=315
!!linebreak:original
4BBB-/ 4BB-/	4d-/ 4f/ 4b-/ 4dd-/
4r	4r
4r	(8ffff\L
.	8bbb-\J
=316	=316
(8fff\L	8eeee-\L
8bb-\	8bbb-\
8ddd-\	8dddd-\
8ff\	8fff\
8ddd-\	8cccc\
8ff\J	8fff\J
=317	=317
8bb-\L	8bbb-\L
8dd-\	8ddd-\
8bb-\	8ggg-\
8dd-\	8ddd-\
8ff\	8fff\
8b-\J	8bb-\J
=318	=318
8ff\L	8ggg-\L
8b-\	8bb-\
8dd-\	8ddd-\
8f\	8ff\
8dd-\	8ccc\
8f\J	8ff\J
=319	=319
4B-\)	4dd-\) 4bb-\
4r	4r
4r	4r
=320	=320
2.BB-\ 2.B-\	2.d-/ 2.f/ 2.dd-/
=321	=321
2.D-\ 2.d-\	2.B-/ 2.f/ 2.gn/
=322	=322
!!linebreak:original
4.CC/ 4.C/	4.B-/ 4.en/ 4.b-/
8CC/ 8C/	8B-/ 8e/ 8a-/
4CC/ 4C/	4B-/ 4e/ 4gn/
=323	=323
2.AAAn/ 2.AAn/	2.c/ 2.en/ 2.gn/ 2.cc/
=324	=324
2.AAn\ 2.An\	2.c/ 2.e-/ 2.g-/ 2.cc/
=325	=325
2.CC/ 2.C/	2.An/ 2.e-/ 2.g-/
=326	=326
4.BBBn/ 4.BBn/	4.An/ 4.d#/ 4.an/
8BBB/ 8BB/	8A/ 8d#/ 8g#/
4BBB/ 4BB/	4A/ 4d#/ 4f#/
=327	=327
2.GGG#/ 2.GG#/	2.Bn/ 2.d#/ 2.f#/ 2.bn/
=328	=328
2.GG#/ 2.G#/	2.Bn/ 2.dn/ 2.f#/ 2.bn/
=329	=329
2.GGG#/ 2.GG#/	2.F#/ 2.Bn/ 2.dn/
=330	=330
!!pagebreak:original
(8GG#\L	4.F#/ 4.Bn/ 4.f#/
8BBBn\	.
8GGG#\	.
8GG#\	8F#/ 8B/ 8en/
8BBB\	4F#/ 4B/ 4dn/
8GGG#\J	.
=331	=331
4GG#\)	4F#/ 4Bn/ 4dn/
4r	4r
4r	4r
=332	=332
2.GG#/ 2.Fn/	2.Bn/ 2.dn/ 2.bn/
=333	=333
2.GGG#\ 2.GG#\	2.Fn/ 2.Bn/ 2.dn/
=334	=334
(8GG#\L	4.F/ 4.B-/ 4.f/
8BBB-\	.
8GGG#\	.
8GG#\	8F/ 8B-/ 8e-/
8BBB-\	4F/ 4B-/ 4dn/
8GGG#\J	.
=335	=335
4GG#\)	4En/ 4B-/ 4c#/
4r	4r
4r	4r
!!linebreak:original
=336||	=336||
!!linebreak:original
*k[f#c#g#d#]	*k[f#c#g#d#]
4GG#/ 4F##/	(8E/L
.	8A#/
4r	8B#/
.	8d#/
4r	8c#/
.	8e/J
=337	=337
4G#\ 4f##\	8a#\L
.	8b#\
4r	8dd#\
.	8cc#\
4r	8ee\
.	8aa#\J
=338	=338
4g#\ 4ff##\	8bb#\L
.	8ddd#\
4r	8ccc#\
.	8eee\
4r	8aaa#\
.	8bbb#\J
=339	=339
4gg#\ 4fff##\	4cccc#\)
4r	4r
4r	4r
=340	=340
2.GGG#\ 2.GG#\	2.E/ 2.A#/ 2.e/
=341	=341
2.GGG#\ 2.GG#\	2.E/ 2.A#/ 2.c#/
=342	=342
!!linebreak:original
(8GG#\L	4.E/ 4.A#/ 4.e/
8AAA#\	.
8GGG#\	.
8GG#\	8E/ 8A#/ 8d#/
8AAA#\	4E/ 4A#/ 4c#/
8GGG#\J	.
=343	=343
4GG#\)	4c#/ 4e/ 4a#/
4r	4r
4r	4r
=344	=344
4GG#/ 4F##/	(8E/L
.	8A#/
4r	8B#/
.	8d#/
4r	8c#/
.	8e/J
=345	=345
4G#\ 4f##\	8a#\L
.	8b#\
4r	8dd#\
.	8cc#\
4r	8ee\
.	8aa#\J
=346	=346
4g#\ 4ff##\	8bb#\L
.	8ddd#\
4r	8ccc#\
.	8eee\
4r	8aaa#\
.	8bbb#\J
=347	=347
4gg#\ 4fff##\	4cccc#\)
4r	4r
4r	4r
=348	=348
!!pagebreak:original
2.GGG#/ 2.GG#/	2.G#/ 2.c#/ 2.e/ 2.a#/
=349	=349
2.CC#/ 2.C#/	2.G#/ 2.c#/ 2.e/ 2.a#/
=350	=350
2.GGG#/ 2.GG#/	4.c#/ 4.e/ 4.cc#/
.	8B#/ 8d#/ 8b#/
.	4c#/ 4e/ 4a#/
=351	=351
2.GG#/ 2.G#/	2.B#/ 2.g#/
=352	=352
2.EE/ 2.E/	2.G#/ 2.c#/ 2.g#/
=353	=353
4DD#/ 4D#/	2.G#/ 2.B#/ 2.f#/ 2.g#/
4CC#/ 4C#/	.
4BBB#/ 4BB#/	.
=354	=354
4CC#/ 4C#/	2.G#/ 2.c#/ 2.e/ 2.a#/
4BBB#/ 4BB#/	.
4AAA#/ 4AA#/	.
=355	=355
2.GGG#/ 2.GG#/	2.B#/ 2.d#/ 2.g#/ 2.b#/
=356	=356
2.EE/ 2.E/	2.c#/ 2.g#/ 2.cc#/
=357	=357
4DD#/ 4D#/	2.f#\ 2.a\ 2.b#\ 2.ff#\
4CC#/ 4C#/	.
4BBB#/ 4BB#/	.
=358	=358
!!linebreak:original
4CC#/ 4C#/	2.f##\ 2.a#\ 2.ee\ 2.ff##\
4BBB#/ 4BB#/	.
4AAA#/ 4AA#/	.
=359	=359
2.GGG#/ 2.GG#/	2.g#\ 2.b#\ 2.gg#\
=360	=360
2.AA\ 2.A\	2.a^\ 2.aa^\
=361	=361
2.GGG#/ 2.GG#/	2.F#/ 2.G#/ 2.B#/ 2.d#/ 2.f#/ 2.g#/
=362	=362
2.AA\ 2.A\	2.a^\ 2.aa^\
=363	=363
2.GGG#/ 2.GG#/	2.F#/ 2.G#/ 2.B#/ 2.d#/ 2.f#/ 2.g#/
=364	=364
2AA\ 2A\	2a^\ 2aa^\
4AA\ 4A\	4a\ 4aa\
=365	=365
2GGG#/ 2GG#/	2F#/ 2G#/ 2B#/ 2d#/ 2f#/ 2g#/
4AA\ 4A\	4a\ 4aa\
=366	=366
4AA\ 4A\	4a^\ 4aa^\
4AA\ 4A\	4a\ 4aa\
4AA\ 4A\	4a\ 4aa\
=367	=367
2.C#\ 2.c#\	2.cc#\ 2.ccc#\
=368	=368
2.AA\ 2.A\	2.a^\ 2.aa^\
=369	=369
!!linebreak:original
4GG#\ 4G#\	4g#\ 4gg#\
4FF#\ 4F#\	4f#\ 4ff#\
4EE\ 4E\	4e\ 4ee\
=370	=370
4AA^\ 4A^\	4a^\ 4aa^\
4GG#\ 4G#\	4g#\ 4gg#\
4FF##\ 4F##\	4f##\ 4ff##\
=371	=371
4GG#\ 4G#\	4g#\ 4gg#\
4FF#\ 4F#\	4f#\ 4ff#\
4EE\ 4E\	4e\ 4ee\
=372	=372
4AA^\ 4A^\	4a^\ 4aa^\
4GG#\ 4G#\	4g#\ 4gg#\
4FF##\ 4F##\	4f##\ 4ff##\
=373	=373
4GG#\ 4G#\	4g#\ 4gg#\
8r	8r
8EE\ 8E\	8e\ 8ee\
4DD#\ 4D#\	4d#\ 4dd#\
=374	=374
4CC#^\ 4AA^\ 4C#^\	4c#^\ 4a^\ 4cc#^\
4BBB\ 4BB\	4B\ 4b\
4AAA\ 4AA\	4A\ 4a\
=375	=375
[2.GGG#\ [2.GG#\	[2.G#^\ [2.g#^\
=376	=376
2.GGG#\_ 2.GG#\_	2.G#\_ 2.g#\_
=377	=377
2.GGG#\] 2.GG#\_	2.G#\_ 2.g#\]
=378	=378
*	*^
2.CC#/ 2.GG#/]	2G#\]	(2.c#/ 2.e/
.	4A#/	.
*	*v	*v
=379	=379
!!pagebreak:original
*^	*^
2.ryy	2.GGG#\ [2.GG#\	4B#\	2.d#/
.	.	4A#\	.
.	.	4G#\	.
*v	*v	*	*
=380	=380	=380
[2.GG#/ 2.F##/	4c#\	2.e/
.	4B#\	.
.	4A#\	.
*	*v	*v
=381	=381
4GG#/] 4G#/	4B#/) 4d#/
4GG#\ 4G#\	4g#\ 4gg#\
4AA\ 4A\	4a\ 4aa\
=382	=382
4EE#\ 4E#\	4e#\ 4ee#\
4FF#\ 4F#\	4f#\ 4ff#\
4En\ 4en\	4een\ 4eeen\
=383	=383
[2.C#\ 2.c#\	[2.cc#\ 2.ccc#\
=384	=384
2.AA\ 2.C#\_ 2.A\	2.a\ 2.cc#\_ 2.aa\
=385	=385
*^	*^
2.C#\]	4GG#/ 4G#/	2.cc#\]	4g#/ 4gg#/
.	4FF#/ 4F#/	.	4f#/ 4ff#/
.	4EE/ 4E/	.	4e/ 4ee/
*v	*v	*	*
*	*v	*v
=386	=386
4AA\ 4A\	4a\ 4aa\
4GG#\ 4G#\	4g#\ 4gg#\
4FF##\ 4F##\	4f##\ 4ff##\
=387	=387
4GG#\ 4G#\	4g#\ 4gg#\
4FF#\ 4F#\	4f#\ 4ff#\
4EE\ 4E\	4e\ 4ee\
=388	=388
!!linebreak:original
4AA\ 4A\	4a\ 4aa\
4GG#\ 4G#\	4g#\ 4gg#\
4FF##\ 4F##\	4f##\ 4ff##\
=389	=389
4GG#\ 4G#\	4g#\ 4gg#\
8r	8r
8EE\ 8E\	8e\ 8ee\
4DD#\ 4D#\	4d#\ 4dd#\
=390	=390
4CC#\ 4C#\	4c#\ 4cc#\
4BBB\ 4BB\	4B\ 4b\
4AAA\ 4AA\	4A\ 4a\
=391	=391
[2.GGG#\ [2.GG#\	[2.G#^\ [2.g#^\
=392	=392
2.GGG#\] 2.GG#\]	2.G#\_ 2.g#\_
=393	=393
2.EEE/ 2.EE/	(2.G#\] 2.B\ 2.g#\]
=394	=394
2.AAA/ 2.AA/	(2.A/) 2.c#/ 2.e/
=395	=395
*	*^
2.EE\ 2.BB\ 2.E\	2.G#/ 2.B/	4g#/
.	.	4f#/
.	.	4e/
=396	=396	=396
2.AA\ 2.E\	4c#\	2.e/
.	4B/	.
.	[4A/	.
=397	=397	=397
2.BB\ 2.D#\	2.f#/	2.A^/
*	*v	*v
=398	=398
4EE\ 4E\	4G#/) 4e/
4r	4r
4r	4r
=399	=399
!!linebreak:original
4F#'\	2.r
4G#'\	.
4E'\	.
=400	=400
4D#'\	2.r
4E'\	.
4C#'\	.
=401	=401
4BB#'\	(2.G#/ 2.d#/ 2.g#/
4AA#'\	.
4GG#'\	.
=402	=402
*	*^
4E'\	2A#\	2.f##/
4D#'\	.	.
4C#'\	4e\	.
*	*v	*v
=403	=403
4BB#'\	2.G#/ 2.d#/ 2.g#/
4AA#'\	.
4GG#'\	.
=404	=404
*	*^
4E'\	4A#\	2.f##/
4D#'\	4f##\	.
4C#'\	4e\	.
*	*v	*v
=405	=405
4BB#'\	[2.G#/ 2.d#/ 2.g#/
4AA#'\	.
4GG#'\	.
=406	=406
4C#'\	4G#/]) 4c#/ 4e/
4D#'\	4r
4E'\	4c#/
=407	=407
4F#'\	2.A/ 2.B#/ 2.a/
4G#'\	.
4F#'\	.
=408	=408
4E'\	[2.G#/ 2.c#/ [2.g#/
4D#'\	.
4C#'\	.
=409	=409
!!pagebreak:original
4BB#'\	2.G#/] 2.d#/ 2.g#/]
4AA#'\	.
4GG#'\	.
=410	=410
*	*^
4EE\ 4E\	2A#\	2.f##/
4DD#\ 4D#\	.	.
4CC#\ 4C#\	4e\	.
*	*v	*v
=411	=411
4BBB#\ 4BB#\	2.G#/ 2.d#/ 2.g#/
4AAA#\ 4AA#\	.
4GGG#\ 4GG#\	.
=412	=412
*	*^
4EE\ 4E\	4A#\	2.f##/
4DD#\ 4D#\	8r	.
.	8f#\	.
4CC#\ 4C#\	4e\	.
*	*v	*v
=413	=413
4BBB#\ 4BB#\	[2.G#/ 2.d#/ 2.g#/
4AAA#\ 4AA#\	.
4GGG#\ 4GG#\	.
=414	=414
4CC#\ 4C#\	4G#/] 4c#/ 4e/
4DD#\ 4D#\	8r
.	8c#/
4EE\ 4E\	4c#^/
=415	=415
4FF#\ 4F#\	2.A/ 2.B#/ 2.a/
4GG#\ 4G#\	.
4FF#\ 4F#\	.
=416	=416
4EE\ 4E\	4G#/ 4c#/ 4g#/
4DD#\ 4D#\	4r
4CC#\ [4C#\	(4c#^/ [4cc#^/
=417	=417
!!linebreak:original
*	*^
2.C#\] 2.G#\	2.b^/ 2.cc#^/]	4e#\
.	.	4d#\
.	.	4c#\
=418	=418	=418
2.F#\ 2.A\	2.cc#^/	4a\
.	.	4g#\
.	.	4f#\
=419	=419	=419
*^	*	*
4G#/	2.C#\	2.b^/ 2.cc#^/	4e#\
4A/	.	.	4d#\
4B/	.	.	4c#\
=420	=420	=420	=420
4A/	2.F#\	2.cc#^/	4a\
4B/	.	.	4g#\
4A/	.	.	4f#\
=421	=421	=421	=421
4G#/	2.C#\	2.b^/ 2.cc#^/	4e#\
4A/	.	.	4d#\
4B/	.	.	4c#\
=422	=422	=422	=422
4A/	[2.F#\	2cc#^/	4f#\
4r	.	.	4g#\
4c#/	.	4ff#/	4a\
*v	*v	*	*
=423	=423	=423
[2.F#\ 2.dn\	2.ee#/	4b\
.	.	4cc#\
.	.	4b\
=424	=424	=424
4F#\] 4c#\	2.ff#/)	4a\
4GG#\ 4G#\	.	4g#\
4AA\ 4A\	.	4f#\
*	*v	*v
=425	=425
!!linebreak:original
*	*^
4GG#/ 4G#/	2.ff#/ 2.gg#/	4b#\
4r	.	4a#\
4r	.	4g#\
=426	=426	=426
*^	*	*
4c#/	2.G#\	2.gg#/	4ee\
4d#/	.	.	4dd#\
4e/	.	.	4cc#\
=427	=427	=427	=427
4d#/	2.G#\	2.ff#^/ 2.gg#^/	4b#\
4e/	.	.	4a#\
4f#/	.	.	4g#\
*v	*v	*	*
=428	=428	=428
4c#\	2.gg#/	4ee\
4D#\ 4d#\	.	4dd#\
4E\ 4e\	.	4cc#\
=429	=429	=429
4GG#/ 4G#/	2.ff#^/ 2.gg#^/	4b#\
4r	.	4a#\
4f#\	.	4g#\
=430	=430	=430
*^	*	*
2.c#\	4e/	2gg#/	4cc#\
.	4r	.	4dd#\
.	4g#/	4ccc#/	4ee\
*v	*v	*	*
=431	=431	=431
[2.c#\ 2.a\	2.bb#^/	4ff#\
.	.	4gg#\
.	.	4ff#\
*	*v	*v
=432	=432
!!pagebreak:original
*	*^
4c#\] 4g#\	4ccc#/	4ee\
4r	4r	4dd#\
4r	4r	4cc#\
=433	=433	=433
4AAA/ 4AA/	4ee^\	(2.aa/ 2.ccc#/
4CC#/ 4C#/	4ddn\	.
4DDn/ 4Dn/	4cc#\	.
=434	=434	=434
2EE/ 2E/	4ee^\	2.gg#/ 2.bb/
.	4cc#\	.
4r	4b\	.
=435	=435	=435
4GGGn/ 4GGn/	4ddn\	2.ggn/ 2.bb/
4BBB/ 4BB/	4ccn\	.
4CCn/ 4Cn/	4b\	.
=436	=436	=436
2DDn/ 2Dn/	4ddn\	2.ff#/ 2.aa/
.	4b^\	.
4r	4a\	.
=437	=437	=437
4FFFn/ 4FFn/	4ccn^\	2.ffn/ 2.aa/
4AAA/ 4AA/	4b-\	.
4BBB-/ 4BB-/	4a\	.
=438	=438	=438
2CCn^/ 2Cn^/	4ccn\	2.ee/ 2.ggn/
.	4a\	.
4r	4gn\	.
=439	=439	=439
(2AA\ 2A\	4r	2ccn/ 2dd#/ 2ff#/
.	4f#\	.
4AA#\ 4A#\	4e\	4gn/ 4cc#/ 4ee/
*	*v	*v
=440	=440
!!linebreak:original
4BB\) 4B\	4d#/) 4f#/ 4b/ 4dd#/
4r	4r
4r	4r
=441	=441
4DD#/ 4D#/	(2.aa^\ 2.bb^\ 2.fff#^\ 2.bbb^\
4EE/ 4E/	.
4FF#/ 4F#/	.
=442	=442
4GGn/ 4Gn/	2.ggn^\ 2.bb^\ 2.eee^\ 2.gggn^\
4AA\ 4A\	.
4BB\ 4B\	.
=443	=443
4Cn\ 4cn\	2.ee^\ 2.ggn^\ 2.cccn^\ 2.eee^\
4Dn\ 4dn\	.
4E\ 4e\	.
=444	=444
4F#\ 4f#\	2.ccn^\ 2.ee^\ 2.aa^\ 2.cccn^\
4Gn\ 4gn\	.
4A\ 4a\	.
=445	=445
4B\ 4b\	4b\) 4dd#\ 4ff#\ 4bb\
4r	4r
4r	4r
=446	=446
4FFF#/ 4FF#/	(2.cn^/ 2.e^/ 2.a^/ 2.ccn^/
4GGGn/ 4GGn/	.
4AAA/ 4AA/	.
=447	=447
4BBB/ 4BB/	4A/) 4B/ 4d#/ 4f#/ 4b/
4r	4r
4r	4r
=448	=448
2.r	([2.B^/
=449	=449
!!linebreak:original
[2.BB\	2.B/_
=450	=450
2.EE\ 2.BB\]	2.E/ 2.G#/ 2.B/]
=451	=451
2.CC#\ 2.C#\	2.E/ 2.G#/ 2.e/
=452	=452
2.BBB\ 2.BB\	2.F#/ 2.d#/ 2.f#/
=453	=453
4EEE/ 4EE/	4G#/) 4B/ 4e/ 4g#/
(8eee\L	(8cccc#\L
8gg#\	8ggg#\
8bb\	8bbb\
8ee\J	8eee\J
=454	=454
8bb\L	8aaa\L
8ee\	8eee\
8gg#\	8ggg#\
8b\	8bb\
8gg#\	8fff#\
8b\J	8bb\J
=455	=455
8ee\L	8eee\L
8g#\	8gg#\
8ee\	8ccc#\
8g#\	8gg#\
8b\	8ddd#\
8e\J	8ee\J
=456	=456
8b\L	8aa\L
8e\	8ee\
8g#\	8gg#\
8B\	8b\
8g#\	8ff#\
8B\J	8b\J
=457	=457
4E\)	4g#\) 4ee\
4r	4r
4r	4r
=458	=458
!!pagebreak:original
2.GGG#/ 2.GG#/	2.G#/ 2.B#/ 2.d#/ 2.g#/
=459	=459
2.CC#/ 2.C#/	2.G#/ 2.c#/ 2.e/ 2.g#/
=460	=460
4.FFF#\ 4.FF#\	4.Bn/ 4.c#/ 4.e/ 4.bn/
8FF#\ 8C#\ 8F#\	8A/ 8c#/ 8e/ 8a/
4FF#\ 4F#\	4A/ 4c#/ 4e/ 4g#/
=461	=461
4BB\ 4F#\	4d#/ 4f#/
(8bb\L	(8ggg#\L
8dd#\	8ddd#\
8ff#\	8fff#\
8b\J	8bb\J
=462	=462
8ff#\L	8eee\L
8b\	8bb\
8dd#\	8ddd#\
8f#\	8ff#\
8dd#\	8ccc#\
8f#\J	8ff#\J
=463	=463
8b\L	8bb\L
8d#\	8dd#\
8b\	8gg#\
8d#\	8dd#\
8f#\	8bb\
8B\J	8b\J
=464	=464
8f#\L	8ee\L
8B\	8b\
8d#\	8dd#\
8F#\	8f#\
8d#\	8cc#\
8F#\J	8f#\J
=465	=465
!!linebreak:original
4BB/)	4d#/) 4b/
4r	4r
4r	4r
=466	=466
2.BBB\ 2.BB\	2.B/ 2.d#/ 2.f#/
=467	=467
2.BBB\ 2.BB\	2.F#/ 2.B/ 2.dn/ 2.f#/
=468	=468
2.EE\ 2.BB\ 2.E\	2.B/ 2.dn/ 2.e/
=469	=469
4AAA/ 4AA/	4c#/ 4e/ 4cc#/
8aa\L	8fff#\L
8cc#\	8ccc#\
8ee\	8eee\
8a\J	8aa\J
=470	=470
8ee\L	8dddn\L
8a\	8aa\
8cc#\	8ccc#\
8e\	8ee\
8cc#\	8bb\
8e\J	8ee\J
=471	=471
8a\L	8aa\L
8c#\	8cc#\
8a\	8ff#\
8c#\	8cc#\
8e\	8ee\
8A\J	8a\J
=472	=472
8e\L	8ddn\L
8A\	8a\
8c#\	8cc#\
8E\	8e\
8c#\	8b\
8E\J	8e\J
=473	=473
!!linebreak:original
4AA/	4c#/ 4a/
4r	4r
4r	4r
=474	=474
2.AAA/ 2.AA/	2.c#/ 2.e/ 2.cc#/
=475	=475
2.AA\ 2.A\	2.F#/ 2.c#/ 2.e/ 2.f#/
=476	=476
4.BBB/ 4.BB/	4.c#/ 4.e/ 4.a/
8BBB/ 8BB/	8B/ 8d#/ 8g#/
4BBB/ [4BB/	4A/ 4d#/ 4f#/
=477	=477
4EE/ 4BB/]	4G#/ 4e/
8eee\L	8cccc#\L
8gg#\	8ggg#\
8bb\	8bbb\
8ee\J	8eee\J
=478	=478
8bb\L	8aaa\L
8ee\	8eee\
8gg#\	8ggg#\
8b\	8bb\
8gg#\	8fff#\
8b\J	8bb\J
=479	=479
8ee\L	8eee\L
8g#\	8gg#\
8ee\	8ccc#\
8g#\	8gg#\
8b\	8ddd#\
8e\J	8ee\J
=480	=480
4B\	4cc#\ 4ee\ 4aa\
8r	8r
8B\	8b\ 8dd#\ 8gg#\
4B\	4a\ 4dd#\ 4ff#\
=481	=481
!!pagebreak:original
4E\	4g#\ 4ee\
8ee\L	8ccc#\L
8g#\	8gg#\
8b\	8bb\
8e\J	8ee\J
=482	=482
8b\L	8aa\L
8e\	8ee\
8g#\	8gg#\
8B\	8b\
8g#\	8ff#\
8B\J	8b\J
=483	=483
8e\L	8ee\L
8G#\	8g#\
8e\	8cc#\
8G#\	8g#\
8B\	8dd#\
8E\J	8e\J
=484	=484
4BB/	4c#/ 4e/ 4a/
8r	8r
8BB/	8B/ 8d#/ 8g#/
4BB/	4A/ 4d#/ 4f#/
=485	=485
4EE/ 4E/	4G#/ 4e/
2r	2r
=486	=486
*^	*
2.ryy	2.EEE\	2.E/
=487	=487	=487
2.ryy	2.EEE\	2.E/
=488	=488	=488
2.ryy	2.EEE\	2.E/
=489	=489	=489
2.ryy	[2.EEE\	[2.E/
*v	*v	*
=490	=490
!!linebreak:original
*^	*
2.ryy	2.EEE\]	2.E/]
=491	=491	=491
2.ryy	2.CCC#\	2.C#/
=492	=492	=492
2.ryy	2.FFF#\	2.F#/
=493	=493	=493
2.ryy	4EEE\	4E/
.	4r	4r
.	4r	4r
*v	*v	*
=494	=494
(2.BB/	2.r
=495	=495
*^	*
2.E/	2.CCn^\	2.r
=496	=496	=496
2.BB/ 2.F#/	2.BBB\	2.r
=497	=497	=497
4EEE\	4E/) 4Gn/	(8ccccn\L
.	.	8gggn\
*v	*v	*
(8eee\L	8bbb\
8ggn\	8eee\J
8bb\	4r
8ee\J	.
=498	=498
8bb\L	8aaa\L
8ee\	8eee\
8ggn\	8gggn\
8b\	8bb\
8gg\	8fff#\
8b\J	8bb\J
=499	=499
!!linebreak:original
8ee\L	8eee\L
8gn\	8ggn\
8ee\	8cccn\
8g\	8gg\
8b\	8ddd#\
8e\J	8ee\J
=500	=500
8b\L	8aa\L
8e\	8ee\
8gn\	8ggn\
8B\	8b\
8g\	8ff#\
8B\J	8b\J
=501	=501
4E\)	4gn\) 4ee\
4r	4r
4r	4r
=502	=502
*^	*
(2.Gn/	2.EE\ 2.BB\	2.r
=503	=503	=503
2.Gn/	2.EE\ 2.BB\	2.r
=504	=504	=504
4B/	2.AAA\	2.r
4A/	.	.
4E/	.	.
=505	=505	=505
4DDn\ 4AA\	4F#/)	(8bbb\L
.	.	8fff#\
*v	*v	*
(8dddn\L	8aaa\
8ff#\	8dddn\J
8aa\	4r
8ddn\J	.
=506	=506
!!pagebreak:original
8aa\L	8gggn\L
8ddn\	8dddn\
8ff#\	8fff#\
8a\	8aa\
8ff#\	8eee\
8a\J	8aa\J
=507	=507
8ddn\L	8dddn\L
8f#\	8ff#\
8dd\	8bb\
8f#\	8ff#\
8a\	8aa\
8dn\J	8ddn\J
=508	=508
8a\L	8ggn\L
8dn\	8ddn\
8f#\	8ff#\
8A\	8a\
8f#\	8ee\
8A\J	8a\J
=509	=509
4Dn\)	4f#/) 4ddn/
4r	4r
4r	4r
=510	=510
*^	*
(2.F#/	2.DDn\ 2.AA\	2.r
=511	=511	=511
2.F#/	2.CC#\ 2.AA\	2.r
=512	=512	=512
2.E#/	2.CC#\ 2.GG#\	2.r
=513	=513	=513
4FFF#\	4C#/) 4A/	(8ddddn\L
.	.	8aaa\
*v	*v	*
(8fff#\L	8cccc#\
8aa\	8fff#\J
8ccc#\	4r
8ff#\J	.
=514	=514
!!linebreak:original
8ccc#\L	8bbb\L
8ff#\	8fff#\
8aa\	8aaa\
8cc#\	8ccc#\
8aa\	8ggg#\
8cc#\J	8ccc#\J
=515	=515
8ff#\L	8eee\L
8a\	8aa\
8ff#\	8dddn\
8a\	8aa\
8cc#\	8ccc#\
8f#\J	8ff#\J
=516	=516
8cc#\L	8bb\L
8f#\	8ff#\
8a\	8aa\
8c#\	8cc#\
8a\	8gg#\
8c#\J	8cc#\J
=517	=517
4F#\)	4a\) 4ff#\
4r	4r
4r	4r
=518	=518
*^	*
2.ryy	[2.C#\ [2.F#\	([2.A/ [2.c#/
=519	=519	=519
2.ryy	[2.FF#\ 2.C#\] 2.F#\]	2.A/] 2.c#/] [2.f#/ [2.a/
=520	=520	=520
2.ryy	2.FF#\] 2.C#\ 2.F#\	[2.A/ [2.c#/ 2.f#/] 2.a/]
=521	=521	=521
2.ryy	4FF#\ 4C#\ 4F#\	4A\) 4c#\ 4f#\ 4a\
.	(8ff#\L	(8dddn\L
.	8a\	8aa\
.	8cc#\	8ccc#\
.	8f#\J	8ff#\J
*v	*v	*
=522	=522
!!linebreak:original
8cc#\L	8bb\L
8f#\	8ff#\
8a\	8aa\
8c#\	8cc#\
8a\	8gg#\
8c#\J	8cc#\J
=523	=523
8f#/L	8ee\L
8A/	8a\
8f#/	8ddn\
8A/	8a\
8c#/	8cc#\
8F#/J	8f#\J
=524	=524
8c#\L	8b/L
8F#\	8f#/
8A\	8a/
8C#\	8c#/
8A\	8g#/
8C#\J	8c#/J
=525	=525
4FF#/)	4A/) 4f#/
4r	4r
4r	4r
=526	=526
*^	*
2.ryy	[2.F#\ [2.A\	([2.c#/ [2.d#/
=527	=527	=527
2.ryy	[2.AA\ [2.D#\ 2.F#\] 2.A\]	2.c#/] 2.d#/] [2.f#/ [2.cc#/
=528	=528	=528
2.ryy	2.AA\] 2.D#\] [2.F#\ [2.A\	[2.c#/ [2.d#/ 2.f#/] 2.cc#/]
=529	=529	=529
*	*	*^
2.ryy	4AA\ 4D#\ 4F#\] 4A\]	2.ryy	4c#\) 4d#\ 4f#\ 4a\
.	4r	.	4r
.	4r	.	4r
*v	*v	*	*
*	*v	*v
=530	=530
!!pagebreak:original
4AAA/	4r
4r	8F#/L
.	8c#/
4r	8e/
.	8c#/J
=531	=531
4AA\ 4A\	8f#\L
.	8cc#\
4r	8ee\
.	8dd#\
4r	8ff#\
.	8ccc#\J
=532	=532
4A\ 4a\	8eee\L
.	8ddd#\
4r	8fff#\
.	8cccc#\
4r	8eeee\
.	8dddd#\J
=533	=533
4a\ 4aa\	4dddd#\
4r	4r
4r	4r
=534	=534
2.AAA/ 2.AA/	2.c#/ 2.d#/ 2.cc#/
=535	=535
2.AA\ 2.A\	2.c#/ 2.d#/ 2.f#/
=536	=536
4.AA/ 4.F#/	4.c#/ 4.d#/ 4.a/
8AA\ 8G#\	8c#/ 8d#/ 8g#/
4AA\ 4A\	4c#/ 4d#/ 4f#/
=537	=537
!!linebreak:original
4AA\ 4A\	4c#/ 4d#/ 4f#/
4r	4r
4r	4r
=538	=538
4A\ 4a\	8f#\L
.	8cc#\
4r	8ee\
.	8dd#\
4r	8ff#\
.	8ccc#\J
=539	=539
4a\ 4aa\	4ddd#\
4r	4r
4r	4r
=540	=540
4.AAA/ 4.AA/	2.r
8GGG#/ 8GG#/	.
4FFF##/ 4FF##/	.
=541	=541
8GGG#/L	2.r
8GG#/	.
8C#/	.
8D#/	.
8E#/	.
8D#/J	.
=542	=542
8C#/L	2.G#/ 2.c#/ 2.e#/ 2.g#/
8GG#/	.
8GGG#/	.
8GG#/	.
8GGG#/	.
8GG#/J	.
=543	=543
!!linebreak:original
8GGG#/L	2.c#/ 2.e#/ 2.g#/ 2.cc#/
8GG#/	.
8C#/	.
8D#/	.
8E#/	.
8D#/J	.
=544	=544
8C#/L	2.d#/ 2.g#/ 2.cc#/ 2.dd#/
8GG#/	.
8GGG#/	.
8GG#/	.
8GGG#/	.
8GG#/J	.
=545	=545
8GGG#/L	[2.e#/ [2.g#/ [2.cc#/ [2.ee#/
8GG#/	.
8C#/	.
8D#/	.
8E#/	.
8D#/J	.
=546	=546
8C#/L	2.e#/] 2.g#/] 2.cc#/] 2.ee#/]
8GG#/	.
8GGG#/	.
8GG#/	.
8GGG#/	.
8GG#/J	.
=547	=547
8GGG#/L	2.G#/ 2.c#/ 2.e#/ 2.g#/
8GG#/	.
8C#/	.
8D#/	.
8E#/	.
8D#/J	.
=548	=548
8C#/L	2.f#\ 2.g#\ 2.cc#\ 2.ff#\
8GG#/	.
8GGG#/	.
8GG#/	.
8GGG#/	.
8GG#/J	.
=549	=549
!!pagebreak:original
8GGG#/L	2.e#/ 2.g#/ 2.cc#/ 2.ee#/
8GG#/	.
8C#/	.
8D#/	.
8E#/	.
8D#/J	.
=550	=550
8C#/L	2.G#/ 2.c#/ 2.e#/ 2.g#/
8GG#/	.
8GGG#/	.
8GG#/	.
8GGG#/	.
8GG#/J	.
=551	=551
8GGG#/L	2.e#/ 2.b/ 2.cc##/ 2.ee#/
8GG#/	.
8C##/	.
8D#/	.
8E#/	.
8D#/J	.
=552	=552
8C##/L	4.g#\ 4.b\ 4.cc##\ 4.gg#\
8GG#/	.
8GGG#/	.
8GG#/	8f#\ 8b\ 8cc##\ 8ff#\
8GGG#/	4e#/ 4a/ 4b/ 4ee#/
8GG#/J	.
=553	=553
8GGG#/L	[2.a#\ [2.dd#\ [2.ff#\ [2.aa#\
8GG#/	.
8D#/	.
8F#/	.
8A#/	.
8F#/J	.
=554	=554
!!linebreak:original
8D#/L	2.a#\] 2.dd#\] 2.ff#\] 2.aa#\]
8GG#/	.
8GGG#/	.
8GG#/	.
8GGG#/	.
8GG#/J	.
=555	=555
8GGG#/L	2.cc#\ 2.dd#\ 2.ff#\ 2.ccc#\
8GG#/	.
8F#/	.
8A#/	.
8d#/	.
8A#/J	.
=556	=556
8F#/L	2b#\ 2dd#\ 2ff#\ 2bb#\
8GG#/	.
8GGG#/	.
8GG#/	.
8GGG#/	4a#\ 4dd#\ 4ff#\ 4aa#\
8GG#/J	.
=557	=557
8GGG#/L	2.a#\ 2.dd#\ 2.ff#\ 2.aa#\
8GG#/	.
8D#/	.
8F#/	.
8A#/	.
8F#/J	.
=558	=558
8D#/L	2.A#/ 2.d#/ 2.f#/ 2.a#/
8GG#/	.
8GGG#/	.
8GG#/	.
8GGG#/	.
8GG#/J	.
=559	=559
8GGG#/L	2.d#/ 2.f#/ 2.a#/ 2.dd#/
8GG#/	.
8D#/	.
8F#/	.
8A#/	.
8F#/J	.
=560	=560
!!linebreak:original
8F#/L	2.e#/ 2.a#/ 2.dd#/ 2.ee#/
8GG#/	.
8GGG#/	.
8GG#/	.
8GGG#/	.
8GG#/J	.
=561	=561
8GGG#/L	2.f#\ 2.a#\ 2.dd#\ 2.ff#\
8GG#/	.
8D#/	.
8F#/	.
8A#/	.
8F#/J	.
=562	=562
8D#/L	2.a#\ 2.dd#\ 2.ff#\ 2.aa#\
8GG#/	.
8GGG#/	.
8GG#/	.
8GGG#/	.
8GG#/J	.
=563	=563
8GGG#/L	2.b#\ 2.dd#\ 2.ff#\ 2.bb#\
8GG#/	.
8D#/	.
8F#/	.
8A#/	.
8F#/J	.
=564	=564
8D#/L	2.cc#\ 2.dd#\ 2.ff#\ 2.aa#\ 2.ccc#\
8GG#/	.
8GGG#/	.
8GG#/	.
8GGG#/	.
8GG#/J	.
=565	=565
8GGG#/L	2.cc##\ 2.ff#\ 2.gg#\ 2.ccc##\
8GG#/	.
8D#/	.
8F#/	.
8B#/	.
8F#/J	.
=566	=566
!!pagebreak:original
8D#/L	2dd#\ 2ff#\ 2gg#\ 2ddd#\
8GG#/	.
8GGG#/	.
8GG#/	.
8D#/	4aan\ 4aaan\
8F#/J	.
=567	=567
4B#\	4aa\ 4aaa\
4A\ 4a\	4aa\ 4aaa\
4G#\ 4g#\	4gg#\ 4ggg#\
=568	=568
4Gn/ 4gn/	4ggn\ 4gggn\
4D#\ 4d#\	4dd#\ 4ddd#\
4F#\ 4f#\	4ff#\ 4fff#\
=569	=569
4BB#\ 4B#\	4b#\ 4bb#\
4GG#/ 4G#/	4g#\ 4gg#\
4AA\ 4A\	4a\ 4aa\
=570	=570
4GGn/ 4Gn/	4gn\ 4ggn\
4DD#/ 4D#/	4d#/ 4dd#/
4FF#/ 4F#/	4f#\ 4ff#\
=571	=571
4BBB#\ 4BB#\	4B#/ 4b#/
4FFF##\ 4FF##\	4F##/ 4f##/
4GGG#\ 4GG#\	4G#/ 4g#/
=572	=572
4AAA\ 4AA\	4A/ 4a/
4DDD#\ 4DD#\	4D#/ 4d#/
4GGG#\ 4GG#\	[4G#/ 4g#/
=573	=573
!!linebreak:original
(8CC#\L	(8G#/L]
8AA\J	8A/
4GG#\)	8G#/
.	8e/
4r	8d#/
.	8c#/J
=574	=574
(8DD#\L	8F##/L
8E\J	8G#/
4D#\)	8F##/
.	8e/
4r	8d#/
.	8c#/J
=575	=575
(8A^\L	8B#/L
8G#\	8c#/
8Gn\	8B#/
8F#\	8a/
8E#\	8g#/
8En\J	8f##/J
=576	=576
8D#\L	8f#/L
8GG#\J	8g#/
4B#\)	8f#/
.	8ee/
4r	8dd#/
.	8f#/J
=577	=577
(8C#\L	8e\L
8A\J	8a\
4G#\)	8g#\
.	8ee\
4r	8dd#\
.	8cc#\J
=578	=578
!!linebreak:original
(8D#\L	8f##\L
8e\J	8g#\
4d#\)	8f##\
.	8ee\
4r	8dd#\
.	8cc#\J
=579	=579
(8a^\L	8b#\L
8g#\	8cc#\
8gn\	8b#\
8f#\	8aa\
8e#\	8gg#\
8en\J	8ff##\J
=580	=580
8d#\L	8ff#\L
8G#\J	8gg#\
4b#/)	8ff#\
.	8eee\
4r	8ddd#\
.	8ff#\J)
=581	=581
4CC#/ 4C#/	8ee\L
.	8ff#\
4c#^\ 4cc#^\	8ee\
.	8eee\
4r	8ddd#\
.	8ccc#\J
=582	=582
!!pagebreak:original
4DD#/ 4D#/	8ff#\L
.	8gg#\
4c#^\ 4cc#^\	8ff#\
.	8eee\
4r	8ddd#\
.	8ccc#\J
=583	=583
4EE/ 4E/	8gg#\L
.	8aa\
4c#^\ 4cc#^\	8gg#\
.	8eee\
4r	8ddd#\
.	8ccc#\J
=584	=584
4FF#/ 4F#/	8aa\L
.	8bb\
4c#^\ 4cc#^\	8aa\
.	8eee\
4r	8ddd#\
.	8ccc#\J
=585	=585
4BBB/ 4BB/	8dd#\L
.	8ee\
4B^\ 4b^\	8dd#\
.	8ddd#\
4r	8ccc#\
.	8bb\J
=586	=586
!!linebreak:original
4CC#/ 4C#/	8ee\L
.	8ff#\
4B^\ 4b^\	8ee\
.	8ddd#\
4r	8ccc#\
.	8bb\J
=587	=587
4DD#/ 4D#/	8ff#\L
.	8gg#\
4B^\ 4b^\	8ff#\
.	8ddd#\
4r	8ccc#\
.	8bb\J
=588	=588
4EE/ 4E/	8gg#\L
.	8aa\
4B^\ 4b^\	8gg#\
.	8ddd#\
4r	8ccc#\
.	8bb\J
=589	=589
4AAA/ 4AA/	8cc#\L
.	8ee\ 8ccc#\
4r	8cc#\
.	8dd#\
4r	8ff#\
.	8ee\J
=590	=590
2E\ 2Gn\ 2A\ 2c#\ 2e\	8ee\L
.	8ggn\ 8eee\
.	8ee\
.	8ff#\
4r	8aa\
.	8gg\J
=591	=591
!!linebreak:original
2A^\ 2c#^\ 2e^\ 2gn^\ 2a^\	8ggn\L
.	8ccc#\ 8gggn\
.	8gg\
.	8bb#\
4A\ 4c#\ 4e\ 4g\ 4a\	8dddn\
.	8ccc#\J
=592	=592
4A^\ 4a^\	8ccc#\L
.	8gggn\ 8cccc#\
4A^\ 4a^\	8ccc#\
.	8fff#\
4A^\ 4a^\	8aaa\
.	8ggg\J
=593	=593
4A^\ 4a^\	8ccc#\L
.	8eee\ 8cccc#\
4r	8ccc#\
.	8fff#\
4r	8aaa\
.	8ggg#\J
=594	=594
4a^\ 4ee^\	8ggn\L
.	8bb#\ 8eee\
4r	8ccc#\
.	8gg\
4r	8b#\ 8ee\
.	8cc#\J
=595	=595
4A^\ 4e^\	8gn/L
.	8b#/ 8ee/
4r	8cc#/
.	8g/
4r	8B#/ 8e/
.	8c#/J
=596	=596
!!pagebreak:original
2.AAA^\ 2.AA^\	8F##/L
.	8c#/ 8e/
.	8d#/
.	8c#/
.	8F##/
.	8e/J 8f##/
=597	=597
4GGG#/ 4GG#/	4G#/ 4e/ 4g#/
4r	4r
8FF##/L	4r
8GG#/J	.
=598	=598
16FF##q/LL	.
16GG#q/JJ	.
[2.GG#/	2A/ 2f#/ 2a/
.	4F#/ 4d#/ 4f#/
=599	=599
2.GG#/_	2.G#/ 2.e/ 2.g#/
=600	=600
2.GG#/_	4A/ 4f#/ 4a/
.	4r
.	4F#/ 4d#/ 4f#/
=601	=601
4GG#/]	4G#/ 4e/ 4g#/
8AA\L	[2A/ [2e/ [2a/
8GGn\	.
8AA\	.
8GG\J	.
=602	=602
8AA\L	2A/] 2e/] 2a/]
8GGn\	.
8AA\	.
8GG\	.
8AA\	4E/ 4A/ 4c#/
8GG\J	.
=603	=603
!!linebreak:original
8GG#\L	2E/ 2G#/ 2e/
8GGn\	.
8FF#\	.
8FFn\	.
8EE\	4r
8DD#\J	.
=604	=604
8DDn\L	4r
8CC#\	.
8CCn\	4r
8BBB\	.
8AAA\	4F#/ 4B#/ 4d#/
8GGG#\J	.
=605	=605
4CCC#\	8E/L 8c#/
.	8A/
2r	8G#/
.	8e/
.	8d#/
.	8c#/J
=606	=606
(8DD#\L	8F##/L
8E\J	8G#/
4D#\)	8F##/
.	8e/
4r	8d#/
.	8c#/J
=607	=607
(8A^\L	8B#/L
8G#\	8c#/
8Gn\	8B#/
8F#\	8a/
8E#\	8g#/
8En\J	8f##/J
=608	=608
!!linebreak:original
8D#\L	8f#/L
8GG#\J	8g#/
4B#\)	8f#/
.	8ee/
4r	8dd#/
.	8f#/J
=609	=609
(8C#\L	8e/L
8A\J	8a/
4G#\)	8g#/
.	8ee/
4r	8dd#/
.	8cc#/J
=610	=610
(8D#\L	8f##/L
8e\J	8g#/
4d#\)	8f##/
.	8ee/
4r	8dd#/
.	8cc#/J
=611	=611
(8a^\L	8b#\L
8g#\	8cc#\
8gn\	8b#\
8f#\	8aa\
8e#\	8gg#\
8en\J	8ff##\J
=612	=612
8d#\L	8ff#\L
8G#\J	8gg#\
4b#/)	8ff#\
.	8eee\
4r	8ddd#\
.	8ff#\J
=613	=613
!!pagebreak:original
4CC#/ 4C#/	8ee\L
.	8ff#\
4c#^\ 4cc#^\	8ee\
.	8eee\
4r	8ddd#\
.	8ccc#\J
=614	=614
4DD#/ 4D#/	8ff#\L
.	8gg#\
4c#^\ 4cc#^\	8ff#\
.	8eee\
4r	8ddd#\
.	8ccc#\J
=615	=615
4EE/ 4E/	8gg#\L
.	8aa\
4c#^\ 4cc#^\	8gg#\
.	8eee\
4r	8ddd#\
.	8ccc#\J
=616	=616
4FF#/ 4F#/	8aa\L
.	8bb\
4c#^\ 4cc#^\	8aa\
.	8eee\
4r	8ddd#\
.	8ccc#\J
=617	=617
!!linebreak:original
4FFF##/ 4FF##/	8c##^/L
.	8d#/
4r	8e#/
.	8f##/
4r	8g#/
.	8a#/J
=618	=618
4D#\ 4A#\ 4c#\ 4d#\	8b#\L
.	8cc#\
4r	8dd#\
.	8ee#\
(4d#\ 4a#\ 4cc#\ 4dd#\	8ff##\
.	8gg#\J
=619	=619
4d#\ 4a#\ 4cc#\ 4dd#\	8aa#\L
.	8bb#\
4e^\ 4ee^\	8ccc#\
.	8ddd#\
4d#\ 4a#\ 4cc#\ 4dd#\	8eee#\
.	8fff##\J
=620	=620
4d#\) 4a#\ 4cc#\ 4dd#\	8ggg#\L
.	8aaa#\
4r	8bbb\
.	8bbb#\
4r	8cccc#\
.	8dddd#\J
=621	=621
!!linebreak:original
(8GGG#\L	4eeee\
8CC#\	.
8BBB\	4r
8AAA\	.
8GGG#\	8r
8FF#\J	8F#/
=622	=622
*^	*
8E/L	8EE\L	2.r
8D#/	8DD#\	.
8C#/	8CC#\	.
8A/	8AA\	.
8G#/	8GG#\	.
8F#/J	8FF#\J	.
=623	=623	=623
*	*	*^
2.ryy	8EE\L	2.ryy	8E/L
.	8C#\	.	8c#/
.	8AA\	.	8A/
.	8C#\	.	8c#/
.	8GG#\	.	8G#/
.	8F#\J	.	8f#/J
*v	*v	*	*
*	*v	*v
=624	=624
8E\L	8e/L
8D#\	8d#/
8C#\	8c#/
8A\	8a/
8G#\	8g#/
8F#\J	8f#/J
=625	=625
8E\L	8e/L
8c#\	8cc#/
8B\	8b/
8A\	8a/
8G#\	8g#/
8f#\J	8ff#/J
=626	=626
!!pagebreak:original
8e\L	8ee\L
8d#\	8dd#\
8c#\	8cc#\
8a\	8aa\
8g#\	8gg#\
8f#\J	8ff#\J
=627	=627
*^	*^
2.ryy	8e\L	2.ryy	8ee\L
.	8cc#\	.	8ccc#\
.	8a\	.	8aa\
.	8cc#\	.	8ccc#\
.	8g#\	.	8gg#\
.	8ff#\J	.	8fff#\J
*v	*v	*	*
*	*v	*v
=628	=628
8ee\L	8eee\L
8dd#\	8ddd#\
8cc#\	8ccc#\
8aa\	8aaa\
8ff##\	8fff##\
8aa\J	8aaa\J
=629	=629
4gg#\)	8ggg#\L
.	8eeee\
4r	8dddd#\
.	8cccc#\
4r	8ggg#\
.	8eee\J
=630	=630
2.r	8ddd#\L
.	8ccc#\
.	8gg#\
.	8ee\
.	8dd#\
.	8cc#\J
=631	=631
2.r	8g#\L
.	8e\
.	8d#\
.	8c#\
.	8G#\
.	8E\J
=632	=632
!!linebreak:original
8D#/L	2.r
8C#/	.
8GG#/	.
8EE/	.
8DD#/	.
8CC#/J	.
=633	=633
4AAA'/)	2.r
4r	.
4r	.
=634	=634
2AA\ 2E\ 2A\	2c#^/ 2e^/ 2a^/ 2cc#^/
4r	4r
=635	=635
2DDn^/ 2Dn^/	2f#\ 2a\ 2ddn\ 2ff#\
4r	4r
=636	=636
2GG#/ 2D#/ 2G#/	2B#^/ 2f#^/ 2g#^/ 2b#^/
4r	4r
=637	=637
2.CCC#/ 2.CC#/	2.cc#^\ 2.ccc#^\
=638	=638
2.AA\ 2.A\	2.a^\ 2.aa^\
=639	=639
2.CC#\ 2.C#\	2.cc#^\ 2.ccc#^\
=640	=640
2.GG#\ 2.G#\	2.g#^\ 2.gg#^\
=641	=641
2.CC#/ 2.C#/	2.cc#^\ 2.ccc#^\
=642	=642
2.FF##/ 2.F##/	2.f##^\ 2.ff##^\
=643	=643
4CC#'/ 4C#'/	4cc#'^\ 4ccc#'^\
4FF#'/ 4F#'/	4f#'^\ 4ff#'^\
4CC#'/ 4C#'/	4cc#'^\ 4ccc#'^\
=644	=644
!!linebreak:original
4EE#'/ 4E#'/	4e#'/ 4ee#'/
4CC#'/ 4C#'/	4cc#'\ 4ccc#'\
8r	8r
8CC#\ 8GG#\ 8C#\	8E#/ 8G#/ 8c#/ 8e#/
=645	=645
2CC#\ 2GG#\ 2C#\	2E#/ 2G#/ 2c#/ 2e#/
4r	4r
=646	=646
2.r	2.r
=647	=647
2e#\ 2g#\ 2cc#\ 2ee#\	2ccc#\ 2cccc#\
4r	4r
=648	=648
2.r	2.r
=649	=649
*^	*
2.CCC#;\ 2.CC#;\	2.C#;/	2.r
*v	*v	*
==	==
*-	*-
